X: 1
T: Bouncing
M: 6/8
L: 1/8
R: jig
K: Amaj
A,CE DFA|EGB Ace|fec aec|edc BGE|
FAd ~f2d|EAc ~e2c|agf ece|1dBG EDC:|2 dBG A3||
|:cea aAa|cea fec|efe ~b2e|efe ~c'2e|
Aaf ece|fAf eAe|fAf eAe|1 dBG A3:|2 dBG EDC||
